X: 39407
T: Tap The Barrel
R: reel
M: 4/4
K: Dmixolydian
|:D2 (3FED ADFA|cAGE {G}EDCE|D2 (3FED ADFA|cAGE ADDC|
D2 (3FED ADFA|cAGE CD (3EFG|D2 (3FED ADFA|1 cAGE A2 GE:|2 cAGE ADFA||
|:[d3D3] e faed|cdef (3gag fe|~d3 e faed|cAGE ADFA|
d^cde faed|(3Bcd ef ~g3 e|~f3 d (3efg ed|1 cAGE ADDA:|2 cAGE ADDC||

